src/components/00-materials/images-raw/Store.svg

<svg width="96" height="96" viewBox="0 0 96 96" fill="none" xmlns="http://www.w3.org/2000/svg">
<path d="M29 65H25M82.79 11H13.21L9 26.46V37.46C8.97735 38.3187 9.12646 39.1733 9.43856 39.9736C9.75067 40.7739 10.2195 41.5038 10.8175 42.1204C11.4155 42.7371 12.1307 43.2281 12.9211 43.5646C13.7114 43.9011 14.561 44.0763 15.42 44.08C17.1406 44.0089 18.7718 43.2942 19.9904 42.0774C21.2091 40.8606 21.9263 39.2305 22 37.51C22 39.2684 22.6985 40.9548 23.9419 42.1981C25.1852 43.4415 26.8716 44.14 28.63 44.14C30.3884 44.14 32.0748 43.4415 33.3181 42.1981C34.5615 40.9548 35.26 39.2684 35.26 37.51C35.3265 39.2225 36.0537 40.8427 37.2888 42.0308C38.524 43.2189 40.1712 43.8826 41.885 43.8826C43.5988 43.8826 45.246 43.2189 46.4812 42.0308C47.7163 40.8427 48.4435 39.2225 48.51 37.51C48.51 39.2684 49.2085 40.9548 50.4519 42.1981C51.6952 43.4415 53.3816 44.14 55.14 44.14C56.8984 44.14 58.5848 43.4415 59.8281 42.1981C61.0715 40.9548 61.77 39.2684 61.77 37.51C61.8365 39.2225 62.5636 40.8427 63.7988 42.0308C65.034 43.2189 66.6812 43.8826 68.395 43.8826C70.1088 43.8826 71.756 43.2189 72.9912 42.0308C74.2263 40.8427 74.9535 39.2225 75.02 37.51C75.02 38.3802 75.1916 39.2418 75.5249 40.0457C75.8582 40.8495 76.3467 41.5797 76.9625 42.1946C77.5783 42.8094 78.3092 43.2969 79.1136 43.629C79.9179 43.9611 80.7798 44.1313 81.65 44.13C82.5067 44.1294 83.3544 43.9557 84.1424 43.6193C84.9303 43.283 85.6421 42.7909 86.2351 42.1726C86.8282 41.5544 87.2902 40.8227 87.5935 40.0215C87.8967 39.2202 88.035 38.366 88 37.51V26.51L82.79 11ZM82 80V45V80ZM13 44V80V44ZM41 80V50H20V80H41ZM51 50H75V63H51V50ZM8 80H87V85H8V80Z" stroke="#00008F" stroke-width="2" stroke-linecap="round" stroke-linejoin="round"/>
</svg>

<svg width="96" height="96" viewBox="0 0 96 96" fill="none" xmlns="http://www.w3.org/2000/svg"><path d="M29 65h-4m57.79-54H13.21L9 26.46v11a6.45 6.45 0 006.42 6.62A6.87 6.87 0 0022 37.51a6.63 6.63 0 1013.26 0 6.63 6.63 0 0013.25 0 6.63 6.63 0 1013.26 0 6.63 6.63 0 0013.25 0 6.62 6.62 0 006.63 6.62A6.36 6.36 0 0088 37.51v-11L82.79 11zM82 80V45v35zM13 44v36-36zm28 36V50H20v30h21zm10-30h24v13H51V50zM8 80h79v5H8v-5z" stroke="#00008F" stroke-width="2" stroke-linecap="round" stroke-linejoin="round"/></svg>
